flaticon/arrows/expand-1.svg

<svg xmlns="http://www.w3.org/2000/svg" width="32" height="32" viewBox="0 0 24 24">
    <path d="M23.964844.28125C23.917969.167969 23.832031.0820312 23.71875.0351562 23.664062.0117188 23.605469 0 23.546875 0L18.113281 0C17.863281 0 17.660156.203125 17.660156.453125 17.660156.703125 17.863281.90625 18.113281.90625L22.453125.90625 15.074219 8.285156C14.898438 8.460938 14.898438 8.746094 15.074219 8.925781 15.164062 9.011719 15.28125 9.054688 15.394531 9.054688 15.511719 9.054688 15.628906 9.011719 15.714844 8.925781L23.09375 1.546875 23.09375 5.886719C23.09375 6.136719 23.296875 6.339844 23.546875 6.339844 23.796875 6.339844 24 6.136719 24 5.886719L24 .453125C24 .394531 23.988281.335938 23.964844.28125zM8.285156 15.074219L.90625 22.453125.90625 18.113281C.90625 17.863281.703125 17.660156.453125 17.660156.203125 17.660156 0 17.863281 0 18.113281L0 23.546875C0 23.605469.0117188 23.664062.0351562 23.71875.0820312 23.832031.167969 23.917969.28125 23.964844.335938 23.988281.394531 24 .453125 24L5.886719 24C6.136719 24 6.339844 23.796875 6.339844 23.546875 6.339844 23.296875 6.136719 23.09375 5.886719 23.09375L1.546875 23.09375 8.925781 15.714844C9.101562 15.539062 9.101562 15.253906 8.925781 15.074219 8.746094 14.898438 8.460938 14.898438 8.285156 15.074219zM.453125 6.339844C.703125 6.339844.90625 6.136719.90625 5.886719L.90625 1.546875 8.28125 8.921875C8.371094 9.011719 8.488281 9.054688 8.601562 9.054688 8.71875 9.054688 8.835938 9.011719 8.921875 8.921875 9.101562 8.746094 9.101562 8.460938 8.921875 8.28125L1.546875.90625 5.886719.90625C6.136719.90625 6.339844.703125 6.339844.453125 6.339844.203125 6.136719 0 5.886719 0L.453125 0C.394531 0 .335938.0117188.28125.0351562.167969.0820312.0820312.167969.0351562.28125.0117188.335938 0 .394531 0 .453125L0 5.886719C0 6.136719.203125 6.339844.453125 6.339844zM23.546875 17.660156C23.296875 17.660156 23.09375 17.863281 23.09375 18.113281L23.09375 22.453125 15.714844 15.074219C15.539062 14.898438 15.253906 14.898438 15.074219 15.074219 14.898438 15.253906 14.898438 15.539062 15.074219 15.714844L22.453125 23.09375 18.113281 23.09375C17.863281 23.09375 17.660156 23.296875 17.660156 23.546875 17.660156 23.796875 17.863281 24 18.113281 24L23.546875 24C23.605469 24 23.664062 23.988281 23.71875 23.964844 23.832031 23.917969 23.917969 23.832031 23.964844 23.71875 23.988281 23.664062 24 23.605469 24 23.546875L24 18.113281C24 17.863281 23.796875 17.660156 23.546875 17.660156zM23.546875 17.660156"/>
</svg>

<svg xmlns="http://www.w3.org/2000/svg" width="32" height="32" viewBox="0 0 24 24">
    <path d="M23.965.281A.448.448 0 0 0 23.547 0h-5.434a.453.453 0 0 0 0 .906h4.34l-7.379 7.38a.455.455 0 0 0 0 .64.466.466 0 0 0 .64 0l7.38-7.38v4.34a.453.453 0 0 0 .906 0V.454a.437.437 0 0 0-.035-.172zm0 0M8.285 15.074l-7.379 7.38v-4.34a.453.453 0 0 0-.906 0v5.433A.448.448 0 0 0 .453 24h5.434a.453.453 0 0 0 0-.906h-4.34l7.379-7.38a.455.455 0 0 0 0-.64.455.455 0 0 0-.64 0zm0 0M.453 6.34c.25 0 .453-.203.453-.453v-4.34l7.375 7.375a.453.453 0 0 0 .64 0 .448.448 0 0 0 0-.64L1.548.905h4.34a.453.453 0 0 0 0-.906H.453A.448.448 0 0 0 0 .453v5.434c0 .25.203.453.453.453zm0 0M23.547 17.66a.453.453 0 0 0-.453.453v4.34l-7.38-7.379a.455.455 0 0 0-.64 0 .455.455 0 0 0 0 .64l7.38 7.38h-4.34a.453.453 0 0 0 0 .906h5.433a.448.448 0 0 0 .453-.453v-5.434a.453.453 0 0 0-.453-.453zm0 0"/>
</svg>
